X:41
T:Biwmares March
M:2/4
L:1/8
Q:160
C:Trad.
R:Processional
K:G
D | G2 A2 | BA/2B/2 Gd/2c/2 | B2 A>G | G3 :|| B |
AG AB | A3 G | AB cB | A3 D | G2 A2 | BA/2B/2 Gd/2 c/2|
B2 A>G | G3 ||
